X: 11
T:Pacchioni's Whole-Tone Etude
M:4/4
L:1/8
K:C
z2  G4  A2| B2 ^c2 ^d2  f2 | \
z2  A4  B2|^c2 ^d2  f2  g2 |
z2  B4 ^c2|^d2  f2  g2  a2 | \
z2 ^c4 ^d2| f2  g2  a2  b2 | \
z2 ^d4  f2| g2  a2  b2 ^c'2|
 GB^dB  GBdB | GB^dB  GBdB | \
 A^cfc  Acfc | A^cfc  Acfc |
 B^dgd  Bdgd | B^dgd  Bdgd | \
^cfaf   cfaf |^cfaf   cfaf |
^dgbg   dgbg |^dgbg   dgbg | \
 fa^c'a fac'a| fa^c'a fac'a|a4 z2|]

Because the diatonic pitch set has an asymmetric pattern, you can always
tell where the tonal centre goes if you transpose it.  A relative pitch
set and a tonal centre together make up a MODE.  Only four of the seven
notes in the relative pitch set are often used as a home note for a mode
used in Scottish music; in the white-note absolute pitch set, these are
C, D, G and A (do, re, so and la).  Two more (E and F, or mi and fa) are
not often used to base modes on, but their modes are worth knowing about
to build a clear and simple system describing the whole Scottish repertoire.

The names given to these modes in Western music theory are about 1000 years
old and make no sense at all.  They are named after places in Greece; this
is because ancient Greek music theorists had an idea (mostly wrong) that
each part of the country had its own special mode.  The mediaeval European
theorists then confused things even further; they thought they were writing
about the same modes as the ancient Greeks but systematically misinterpreted
what the Greek theory said.  After 1000 years it's a bit too late to think
about changing this, so I'm going with the flow.


2. The Major Mode
== ==============

The commonest mode in all the traditional musics of the British Isles is
the MAJOR mode ("ionian" to the mediaeval theorists, "chargah" in Turkish
music theory, "bilaval" in the music of North India, "sankarabharana" in
Carnatic music).  In this scale the "1" pitch (C in the white-note scale)
is the home note.  One common way of describing a scale is by the sequence
of intervals that occur in it as you ascend it for an octave; in the major
scale, this sequence is tone-tone-semitone-tone-tone-tone-semitone, or
TTS TTTS in the abbreviated form I'll use from now on.  Using the sol-fa
"do re mi" system, it is sometimes called the "do-mode" and goes like this:

